ubuntu-mono-dark/status/22/ubuntuone-client-offline.svg

<?xml version="1.0" encoding="UTF-8" standalone="no"?>
<!-- Created with Inkscape (http://www.inkscape.org/) -->

<svg
   xmlns:dc="http://purl.org/dc/elements/1.1/"
   xmlns:cc="http://creativecommons.org/ns#"
   xmlns:rdf="http://www.w3.org/1999/02/22-rdf-syntax-ns#"
   xmlns:svg="http://www.w3.org/2000/svg"
   xmlns="http://www.w3.org/2000/svg"
   version="1.0"
   width="22"
   height="22"
   id="svg3215">
  <metadata
     id="metadata8">
    <rdf:RDF>
      <cc:Work
         rdf:about="">
        <dc:format>image/svg+xml</dc:format>
        <dc:type
           rdf:resource="http://purl.org/dc/dcmitype/StillImage" />
        <dc:title></dc:title>
      </cc:Work>
    </rdf:RDF>
  </metadata>
  <defs
     id="defs3217" />
  <path
     d="m 12.497397,5.000001 c -1.689456,0 -3.1368041,1.0625201 -3.9062501,2.59375 -0.4332697,-0.3604057 -0.98655,-0.5937499 -1.59375,-0.59375 -1.3799999,0 -2.4999999,1.1200002 -2.5,2.5 0,0.3099274 0.05301,0.601043 0.15625,0.875 -1.5695077,0.701279 -2.65625,2.289031 -2.65625,4.124999 0,2.493 2.007,4.5 4.5,4.5 l 9.0000001,0 c 2.493,0 4.5,-2.007 4.5,-4.5 0,-1.974673 -1.26873,-3.641032 -3.03125,-4.249999 0.0039,-0.08543 0.03125,-0.163499 0.03125,-0.25 0,-2.76 -2.016,-5 -4.5,-5 z m -1.5,3 c 0.554,0 1,0.446 1,1 l 0,4.999999 c 0,0.554 -0.446,1 -1,1 -0.554,0 -1.0000001,-0.446 -1.0000001,-1 l 0,-4.999999 c 0,-0.554 0.4460001,-1 1.0000001,-1 z m -0.5,7.999999 0.5,0 0.5,0 c 0.277,0 0.5,0.223 0.5,0.5 l 0,0.5 0,0.5 c 0,0.277 -0.223,0.5 -0.5,0.5 l -0.5,0 -0.5,0 c -0.277,0 -0.5000001,-0.223 -0.5000001,-0.5 l 0,-0.5 0,-0.5 c 0,-0.277 0.2230001,-0.5 0.5000001,-0.5 z"
     id="rect3193-5"
     style="opacity:0.3;fill:#000000;fill-opacity:1;fill-rule:evenodd;stroke:none;stroke-width:1.69999993;marker:none;visibility:visible;display:inline;overflow:visible;enable-background:accumulate" />
  <path
     d="m 12.497397,3.9995526 c -1.689456,0 -3.1368041,1.0625201 -3.9062501,2.59375 -0.4332697,-0.3604057 -0.98655,-0.5937499 -1.59375,-0.59375 -1.3799999,0 -2.4999999,1.1200002 -2.5,2.5 0,0.3099274 0.05301,0.6010427 0.15625,0.8749997 -1.5695077,0.7012797 -2.65625,2.2890317 -2.65625,4.1249997 0,2.493 2.007,4.5 4.5,4.5 l 9.0000001,0 c 2.493,0 4.5,-2.007 4.5,-4.5 0,-1.974673 -1.26873,-3.6410327 -3.03125,-4.2499997 0.0039,-0.085426 0.03125,-0.163499 0.03125,-0.2499997 0,-2.76 -2.016,-5 -4.5,-5 z m -1.5,3 c 0.554,0 1,0.446 1,1 l 0,4.9999994 c 0,0.554 -0.446,1 -1,1 -0.554,0 -1.0000001,-0.446 -1.0000001,-1 l 0,-4.9999994 c 0,-0.554 0.4460001,-1 1.0000001,-1 z m -0.5,7.9999994 0.5,0 0.5,0 c 0.277,0 0.5,0.223 0.5,0.5 l 0,0.5 0,0.5 c 0,0.277 -0.223,0.5 -0.5,0.5 l -0.5,0 -0.5,0 c -0.277,0 -0.5000001,-0.223 -0.5000001,-0.5 l 0,-0.5 0,-0.5 c 0,-0.277 0.2230001,-0.5 0.5000001,-0.5 z"
     id="rect3193"
     style="fill:#dfdbd2;fill-opacity:1;fill-rule:evenodd;stroke:none;stroke-width:1.69999993;marker:none;visibility:visible;display:inline;overflow:visible;enable-background:accumulate" />
</svg>

<?xml version="1.0" encoding="UTF-8" standalone="no"?>
<!-- Created with Inkscape (http://www.inkscape.org/) -->
<svg
   xmlns:svg="http://www.w3.org/2000/svg"
   xmlns="http://www.w3.org/2000/svg"
   version="1.0"
   width="22"
   height="22"
   id="svg3215">
  <defs
     id="defs3217" />
  <path
     d="M 12.497397,3.4995526 C 10.821011,3.4811694 9.2836169,4.5340213 8.4348969,5.9370526 C 6.9381419,4.914249 4.7395395,5.8073515 4.1809223,7.4733598 C 3.7243904,8.2601628 4.5287463,9.2976233 3.4348038,9.6080803 C 1.5622183,10.981885 0.94391695,13.730814 2.0456852,15.772752 C 2.9289165,17.556365 4.932622,18.648 6.9071969,18.499552 C 9.8984229,18.490169 12.890585,18.518555 15.881212,18.484929 C 18.360862,18.345859 20.484994,16.112636 20.495759,13.628289 C 20.578692,11.654726 19.290897,9.7731713 17.497397,8.9995526 C 17.551421,6.4738386 15.720212,3.8898416 13.13507,3.5441198 C 12.923904,3.5143616 12.710646,3.4995402 12.497397,3.4995526 z"
     id="path3203"
     style="opacity:0.6;fill:none;fill-opacity:1;fill-rule:nonzero;stroke:#43423e;stroke-width:0.99999994;stroke-linecap:round;stroke-linejoin:miter;marker:none;marker-start:none;marker-mid:none;marker-end:none;stroke-miterlimit:4;stroke-dasharray:none;stroke-dashoffset:0;stroke-opacity:1;visibility:visible;display:inline;overflow:visible;enable-background:accumulate" />
  <path
     d="M 12.497397,3.9995526 C 10.807941,3.9995526 9.3605929,5.0620727 8.5911469,6.5933026 C 8.1578772,6.2328969 7.6045969,5.9995527 6.9973969,5.9995526 C 5.617397,5.9995526 4.497397,7.1195528 4.4973969,8.4995526 C 4.4973969,8.80948 4.5504066,9.1005953 4.6536469,9.3745523 C 3.0841392,10.075832 1.9973969,11.663584 1.9973969,13.499552 C 1.9973969,15.992552 4.0043969,17.999552 6.4973969,17.999552 L 15.497397,17.999552 C 17.990397,17.999552 19.997397,15.992552 19.997397,13.499552 C 19.997397,11.524879 18.728667,9.8585193 16.966147,9.2495523 C 16.97006,9.1641263 16.997397,9.0860533 16.997397,8.9995526 C 16.997397,6.2395526 14.981397,3.9995526 12.497397,3.9995526 z M 10.997397,6.9995526 C 11.551397,6.9995526 11.997397,7.4455526 11.997397,7.9995526 L 11.997397,12.999552 C 11.997397,13.553552 11.551397,13.999552 10.997397,13.999552 C 10.443397,13.999552 9.9973969,13.553552 9.9973969,12.999552 L 9.9973969,7.9995526 C 9.9973969,7.4455526 10.443397,6.9995526 10.997397,6.9995526 z M 10.497397,14.999552 L 10.997397,14.999552 L 11.497397,14.999552 C 11.774397,14.999552 11.997397,15.222552 11.997397,15.499552 L 11.997397,15.999552 L 11.997397,16.499552 C 11.997397,16.776552 11.774397,16.999552 11.497397,16.999552 L 10.997397,16.999552 L 10.497397,16.999552 C 10.220397,16.999552 9.9973969,16.776552 9.9973969,16.499552 L 9.9973969,15.999552 L 9.9973969,15.499552 C 9.9973969,15.222552 10.220397,14.999552 10.497397,14.999552 z"
     id="rect3193"
     style="opacity:1;fill:#dfd8c8;fill-opacity:1;fill-rule:evenodd;stroke:none;stroke-width:1.69999993;stroke-linecap:round;stroke-linejoin:miter;marker:none;marker-start:none;marker-mid:none;marker-end:none;stroke-miterlimit:4;stroke-dasharray:none;stroke-dashoffset:0;stroke-opacity:1;visibility:visible;display:inline;overflow:visible;enable-background:accumulate" />
</svg>
